X:114
T:John Brown or Glory Halleluah
S:American Veteran Fifer #114
M:2/4
L:1/8
Q:1/4=120
K:G 
%%MIDI program 72
%%MIDI transpose 8
%%MIDI ratio 3 1
d2 d>c | B>d g>a | b>b b>a | g2 z g | e2 e>f | g>f g>e | d>e d>B | d2 z d |
d2 d>c | B>d g>a | b>b b>a | g2 z g | a2 a>a | g2 f2 | g4- | g2 z2||
d3 c | B>d g>a | b3 a | g3 z | e3 f | g>f g>e | d2 d>c | B2 z2|
d3 c | B>d g>a | b2 b>a | g2 z g | a2 a2 | g2 f2 | g4 | g2 z2 |


